gnome/icons/Varda/apps/scalable/preferences-system-time.svg

<?xml version="1.0" encoding="UTF-8" standalone="no"?>
<svg
   xmlns:dc="http://purl.org/dc/elements/1.1/"
   xmlns:cc="http://creativecommons.org/ns#"
   xmlns:rdf="http://www.w3.org/1999/02/22-rdf-syntax-ns#"
   xmlns:svg="http://www.w3.org/2000/svg"
   xmlns="http://www.w3.org/2000/svg"
   xmlns:sodipodi="http://sodipodi.sourceforge.net/DTD/sodipodi-0.dtd"
   xmlns:inkscape="http://www.inkscape.org/namespaces/inkscape"
   width="64px"
   height="64px"
   viewBox="0 0 64 64"
   version="1.1"
   id="svg13"
   sodipodi:docname="org.gnome.clocks.svg"
   inkscape:version="1.0.2 (e86c870879, 2021-01-15)">
  <metadata
     id="metadata19">
    <rdf:RDF>
      <cc:Work
         rdf:about="">
        <dc:format>image/svg+xml</dc:format>
        <dc:type
           rdf:resource="http://purl.org/dc/dcmitype/StillImage" />
      </cc:Work>
    </rdf:RDF>
  </metadata>
  <defs
     id="defs17" />
  <sodipodi:namedview
     pagecolor="#ffffff"
     bordercolor="#666666"
     borderopacity="1"
     objecttolerance="10"
     gridtolerance="10"
     guidetolerance="10"
     inkscape:pageopacity="0"
     inkscape:pageshadow="2"
     inkscape:window-width="2560"
     inkscape:window-height="1403"
     id="namedview15"
     showgrid="false"
     inkscape:zoom="15.75"
     inkscape:cx="32"
     inkscape:cy="32"
     inkscape:window-x="0"
     inkscape:window-y="0"
     inkscape:window-maximized="1"
     inkscape:current-layer="surface1" />
  <g
     id="surface1">
    <path
       style="fill:#d0ebee;fill-opacity:1;fill-rule:nonzero;stroke:none"
       d="m 31.75,3.144531 c 16.074219,0 29.105469,13.03125 29.105469,29.105469 0,16.074219 -13.03125,29.105469 -29.105469,29.105469 C 15.675781,61.355469 2.644531,48.324219 2.644531,32.25 2.644531,16.175781 15.675781,3.144531 31.75,3.144531 Z m 0,0"
       id="path2" />
    <path
       style="fill:#0c0e11;fill-opacity:1;fill-rule:nonzero;stroke:none"
       d="m 31.75,5.792969 c 14.613281,0 26.457031,11.84375 26.457031,26.457031 0,14.613281 -11.84375,26.457031 -26.457031,26.457031 C 17.136719,58.707031 5.292969,46.863281 5.292969,32.25 5.292969,17.636719 17.136719,5.792969 31.75,5.792969 Z m 0,0"
       id="path4" />
    <path
       style="fill:#257b76;fill-opacity:1;fill-rule:nonzero;stroke:none"
       d="m 15.847656,14.8125 c -0.207031,0 -0.417968,0.08203 -0.574218,0.238281 l -0.722657,0.722657 c -0.316406,0.316406 -0.316406,0.832031 0,1.148437 l 15.21875,15.21875 c 0.05469,-1.011719 0.859375,-1.816406 1.871094,-1.871094 L 16.421875,15.050781 C 16.261719,14.894531 16.054688,14.8125 15.847656,14.8125 Z m 17.882813,17.546875 c -0.05469,1.011719 -0.859375,1.816406 -1.871094,1.871094 l 0.25,0.25 c 0.320313,0.320312 0.832031,0.320312 1.152344,0 l 0.71875,-0.71875 c 0.320312,-0.320313 0.320312,-0.832031 0,-1.152344 z m 0,0"
       id="path6" />
    <path
       style="fill:#257b76;fill-opacity:0.99607843;fill-rule:nonzero;stroke:none"
       d="m 25.90625,55.335938 -0.640625,-0.171876 c -0.175781,-0.04687 -0.28125,-0.226562 -0.230469,-0.402343 l 5.304688,-19.808594 c 0.04687,-0.175781 0.230468,-0.28125 0.40625,-0.234375 l 0.636718,0.171875 c 0.179688,0.04687 0.28125,0.230469 0.234376,0.40625 L 26.3125,55.101562 c -0.04687,0.175782 -0.230469,0.28125 -0.40625,0.234376 z m 0,0"
       id="path8" />
    <path
       style="fill:#733447;fill-opacity:1;fill-rule:nonzero;stroke:none"
       d="m 46.527344,19.351562 c -0.167969,0 -0.332032,0.04688 -0.476563,0.152344 l -12.667969,9.125 c -0.5,-0.222656 -1.050781,-0.347656 -1.632812,-0.347656 -2.199219,0 -3.96875,1.769531 -3.96875,3.96875 0,2.199219 1.769531,3.96875 3.96875,3.96875 2.199219,0 3.96875,-1.769531 3.96875,-3.96875 0,-0.136719 -0.0078,-0.269531 -0.01953,-0.398438 l 12.671875,-9.128906 c 0.355468,-0.253906 0.433594,-0.746094 0.179687,-1.101562 l -1.398437,-1.9375 C 47,19.472656 46.765625,19.359375 46.527344,19.351562 Z M 31.75,30.265625 c 1.097656,0 1.984375,0.886719 1.984375,1.984375 0,1.097656 -0.886719,1.984375 -1.984375,1.984375 -1.097656,0 -1.984375,-0.886719 -1.984375,-1.984375 0,-1.097656 0.886719,-1.984375 1.984375,-1.984375 z m 0,0"
       id="path10" />
  </g>
</svg>

<?xml version="1.0" encoding="UTF-8"?>
<svg xmlns="http://www.w3.org/2000/svg" xmlns:xlink="http://www.w3.org/1999/xlink" width="64px" height="64px" viewBox="0 0 64 64" version="1.1">
<g id="surface1">
<path style=" stroke:none;fill-rule:nonzero;fill:rgb(87.843138%,87.843138%,87.843138%);fill-opacity:1;" d="M 31.75 3.144531 C 47.824219 3.144531 60.855469 16.175781 60.855469 32.25 C 60.855469 48.324219 47.824219 61.355469 31.75 61.355469 C 15.675781 61.355469 2.644531 48.324219 2.644531 32.25 C 2.644531 16.175781 15.675781 3.144531 31.75 3.144531 Z M 31.75 3.144531 "/>
<path style=" stroke:none;fill-rule:nonzero;fill:rgb(25.882354%,25.882354%,25.882354%);fill-opacity:1;" d="M 31.75 5.792969 C 46.363281 5.792969 58.207031 17.636719 58.207031 32.25 C 58.207031 46.863281 46.363281 58.707031 31.75 58.707031 C 17.136719 58.707031 5.292969 46.863281 5.292969 32.25 C 5.292969 17.636719 17.136719 5.792969 31.75 5.792969 Z M 31.75 5.792969 "/>
<path style=" stroke:none;fill-rule:nonzero;fill:rgb(100%,65.490198%,14.901961%);fill-opacity:1;" d="M 15.847656 14.8125 C 15.640625 14.8125 15.429688 14.894531 15.273438 15.050781 L 14.550781 15.773438 C 14.234375 16.089844 14.234375 16.605469 14.550781 16.921875 L 29.769531 32.140625 C 29.824219 31.128906 30.628906 30.324219 31.640625 30.269531 L 16.421875 15.050781 C 16.261719 14.894531 16.054688 14.8125 15.847656 14.8125 Z M 33.730469 32.359375 C 33.675781 33.371094 32.871094 34.175781 31.859375 34.230469 L 32.109375 34.480469 C 32.429688 34.800781 32.941406 34.800781 33.261719 34.480469 L 33.980469 33.761719 C 34.300781 33.441406 34.300781 32.929688 33.980469 32.609375 Z M 33.730469 32.359375 "/>
<path style=" stroke:none;fill-rule:nonzero;fill:rgb(93.725491%,32.549021%,31.37255%);fill-opacity:0.995763;" d="M 25.90625 55.335938 L 25.265625 55.164062 C 25.089844 55.117188 24.984375 54.9375 25.035156 54.761719 L 30.339844 34.953125 C 30.386719 34.777344 30.570312 34.671875 30.746094 34.71875 L 31.382812 34.890625 C 31.5625 34.9375 31.664062 35.121094 31.617188 35.296875 L 26.3125 55.101562 C 26.265625 55.277344 26.082031 55.382812 25.90625 55.335938 Z M 25.90625 55.335938 "/>
<path style=" stroke:none;fill-rule:nonzero;fill:rgb(25.882354%,64.705884%,96.078432%);fill-opacity:1;" d="M 46.527344 19.351562 C 46.359375 19.351562 46.195312 19.398438 46.050781 19.503906 L 33.382812 28.628906 C 32.882812 28.40625 32.332031 28.28125 31.75 28.28125 C 29.550781 28.28125 27.78125 30.050781 27.78125 32.25 C 27.78125 34.449219 29.550781 36.21875 31.75 36.21875 C 33.949219 36.21875 35.71875 34.449219 35.71875 32.25 C 35.71875 32.113281 35.710938 31.980469 35.699219 31.851562 L 48.371094 22.722656 C 48.726562 22.46875 48.804688 21.976562 48.550781 21.621094 L 47.152344 19.683594 C 47 19.472656 46.765625 19.359375 46.527344 19.351562 Z M 31.75 30.265625 C 32.847656 30.265625 33.734375 31.152344 33.734375 32.25 C 33.734375 33.347656 32.847656 34.234375 31.75 34.234375 C 30.652344 34.234375 29.765625 33.347656 29.765625 32.25 C 29.765625 31.152344 30.652344 30.265625 31.75 30.265625 Z M 31.75 30.265625 "/>
</g>
</svg>
